Numix-Circle/48x48/apps/totem.svg

<?xml version="1.0" encoding="UTF-8" standalone="no"?>
<svg
   xmlns:dc="http://purl.org/dc/elements/1.1/"
   xmlns:cc="http://creativecommons.org/ns#"
   xmlns:rdf="http://www.w3.org/1999/02/22-rdf-syntax-ns#"
   xmlns:svg="http://www.w3.org/2000/svg"
   xmlns="http://www.w3.org/2000/svg"
   xmlns:xlink="http://www.w3.org/1999/xlink"
   xmlns:sodipodi="http://sodipodi.sourceforge.net/DTD/sodipodi-0.dtd"
   xmlns:inkscape="http://www.inkscape.org/namespaces/inkscape"
   viewBox="0 0 48 48"
   id="svg2"
   version="1.1"
   inkscape:version="0.48.4 r9939"
   width="100%"
   height="100%"
   sodipodi:docname="totem.svg">
  <metadata
     id="metadata81">
    <rdf:RDF>
      <cc:Work
         rdf:about="">
        <dc:format>image/svg+xml</dc:format>
        <dc:type
           rdf:resource="http://purl.org/dc/dcmitype/StillImage" />
      </cc:Work>
    </rdf:RDF>
  </metadata>
  <sodipodi:namedview
     pagecolor="#ffffff"
     bordercolor="#666666"
     borderopacity="1"
     objecttolerance="10"
     gridtolerance="10"
     guidetolerance="10"
     inkscape:pageopacity="0"
     inkscape:pageshadow="2"
     inkscape:window-width="640"
     inkscape:window-height="480"
     id="namedview79"
     showgrid="false"
     inkscape:zoom="6.9532167"
     inkscape:cx="16.273329"
     inkscape:cy="34.811527"
     inkscape:window-x="0"
     inkscape:window-y="0"
     inkscape:window-maximized="0"
     inkscape:current-layer="svg2" />
  <defs
     id="defs4">
    <linearGradient
       id="linearGradient3764"
       x1="1"
       x2="47"
       gradientUnits="userSpaceOnUse"
       gradientTransform="matrix(0,-1,1,0,-1.5e-6,47.999998)">
      <stop
         stop-color="#6b74c7"
         stop-opacity="1"
         id="stop7" />
      <stop
         offset="1"
         stop-color="#7a81cc"
         stop-opacity="1"
         id="stop9" />
    </linearGradient>
    <clipPath
       id="clipPath-881269892">
      <g
         transform="translate(0,-1004.3622)"
         id="g12">
        <path
           d="m -24 13 c 0 1.105 -0.672 2 -1.5 2 -0.828 0 -1.5 -0.895 -1.5 -2 0 -1.105 0.672 -2 1.5 -2 0.828 0 1.5 0.895 1.5 2 z"
           transform="matrix(15.333333,0,0,11.5,414.99999,878.8622)"
           fill="#1890d0"
           id="path14" />
      </g>
    </clipPath>
    <clipPath
       id="clipPath-886435854">
      <g
         transform="translate(0,-1004.3622)"
         id="g17">
        <path
           d="m -24 13 c 0 1.105 -0.672 2 -1.5 2 -0.828 0 -1.5 -0.895 -1.5 -2 0 -1.105 0.672 -2 1.5 -2 0.828 0 1.5 0.895 1.5 2 z"
           transform="matrix(15.333333,0,0,11.5,414.99999,878.8622)"
           fill="#1890d0"
           id="path19" />
      </g>
    </clipPath>
    <linearGradient
       inkscape:collect="always"
       xlink:href="#linearGradient3764"
       id="linearGradient3085"
       gradientUnits="userSpaceOnUse"
       gradientTransform="matrix(0,-1,1,0,-1.5e-6,47.999998)"
       x1="1"
       x2="47" />
    <linearGradient
       inkscape:collect="always"
       xlink:href="#linearGradient3764"
       id="linearGradient3088"
       gradientUnits="userSpaceOnUse"
       gradientTransform="matrix(0,-1,1,0,-1.5e-6,47.999998)"
       x1="1"
       x2="47" />
    <linearGradient
       inkscape:collect="always"
       xlink:href="#linearGradient3764"
       id="linearGradient3143"
       gradientUnits="userSpaceOnUse"
       gradientTransform="matrix(0,-1,1,0,-1.5e-6,47.999998)"
       x1="1"
       x2="47" />
    <linearGradient
       inkscape:collect="always"
       xlink:href="#linearGradient3764"
       id="linearGradient3146"
       gradientUnits="userSpaceOnUse"
       gradientTransform="matrix(0,-1,1,0,-1.5e-6,47.999998)"
       x1="1"
       x2="47" />
    <linearGradient
       inkscape:collect="always"
       xlink:href="#linearGradient3764"
       id="linearGradient3154"
       gradientUnits="userSpaceOnUse"
       gradientTransform="matrix(0,-1,1,0,-1.5e-6,47.999998)"
       x1="1"
       x2="47" />
    <linearGradient
       inkscape:collect="always"
       xlink:href="#linearGradient3764"
       id="linearGradient3157"
       gradientUnits="userSpaceOnUse"
       gradientTransform="matrix(0,-1,1,0,-1.5e-6,47.999998)"
       x1="1"
       x2="47" />
  </defs>
  <g
     id="g21">
    <path
       d="m 36.31 5 c 5.859 4.062 9.688 10.831 9.688 18.5 c 0 12.426 -10.07 22.5 -22.5 22.5 c -7.669 0 -14.438 -3.828 -18.5 -9.688 c 1.037 1.822 2.306 3.499 3.781 4.969 c 4.085 3.712 9.514 5.969 15.469 5.969 c 12.703 0 23 -10.298 23 -23 c 0 -5.954 -2.256 -11.384 -5.969 -15.469 c -1.469 -1.475 -3.147 -2.744 -4.969 -3.781 z m 4.969 3.781 c 3.854 4.113 6.219 9.637 6.219 15.719 c 0 12.703 -10.297 23 -23 23 c -6.081 0 -11.606 -2.364 -15.719 -6.219 c 4.16 4.144 9.883 6.719 16.219 6.719 c 12.703 0 23 -10.298 23 -23 c 0 -6.335 -2.575 -12.06 -6.719 -16.219 z"
       opacity="0.05"
       id="path23" />
    <path
       d="m 41.28 8.781 c 3.712 4.085 5.969 9.514 5.969 15.469 c 0 12.703 -10.297 23 -23 23 c -5.954 0 -11.384 -2.256 -15.469 -5.969 c 4.113 3.854 9.637 6.219 15.719 6.219 c 12.703 0 23 -10.298 23 -23 c 0 -6.081 -2.364 -11.606 -6.219 -15.719 z"
       opacity="0.1"
       id="path25" />
    <path
       d="m 31.25 2.375 c 8.615 3.154 14.75 11.417 14.75 21.13 c 0 12.426 -10.07 22.5 -22.5 22.5 c -9.708 0 -17.971 -6.135 -21.12 -14.75 a 23 23 0 0 0 44.875 -7 a 23 23 0 0 0 -16 -21.875 z"
       opacity="0.2"
       id="path27" />
  </g>
  <path
     style="fill:url(#linearGradient3157);fill-opacity:1"
     d="M 20.78125 1.21875 C 20.306072 1.285405 19.840399 1.3735212 19.375 1.46875 C 19.837128 1.3746043 20.309415 1.2846945 20.78125 1.21875 z M 27.21875 1.21875 C 27.690585 1.2846945 28.162872 1.3746043 28.625 1.46875 C 28.159601 1.3735212 27.693928 1.285405 27.21875 1.21875 z M 19.09375 1.53125 C 18.632863 1.6315829 18.168863 1.7474904 17.71875 1.875 C 18.17628 1.7451858 18.625014 1.6329294 19.09375 1.53125 z M 17.71875 1.875 C 17.295698 1.9948439 16.881504 2.1381795 16.46875 2.28125 C 16.883774 2.136989 17.293244 1.995728 17.71875 1.875 z M 28.90625 1.53125 C 29.374986 1.6329294 29.82372 1.7451858 30.28125 1.875 C 29.831137 1.7474904 29.367137 1.6315829 28.90625 1.53125 z M 30.28125 1.875 C 30.706756 1.995728 31.116226 2.136989 31.53125 2.28125 C 31.118496 2.1381795 30.704302 1.9948439 30.28125 1.875 z M 9.375 6.25 C 9.0626219 6.5077949 8.7669627 6.7888497 8.46875 7.0625 C 8.7646509 6.790669 9.065146 6.5061877 9.375 6.25 z M 38.625 6.25 C 38.934854 6.5061877 39.235349 6.790669 39.53125 7.0625 C 39.233037 6.7888497 38.937378 6.5077949 38.625 6.25 z M 5.4375 10.4375 C 5.1359003 10.849346 4.8679682 11.255476 4.59375 11.6875 C 4.865587 11.25925 5.1388525 10.845923 5.4375 10.4375 z M 4.59375 11.6875 C 4.3228234 12.114338 4.0554583 12.554707 3.8125 13 C 4.056297 12.553169 4.321913 12.11575 4.59375 11.6875 z M 3.8125 13 C 2.0295797 16.267733 1 20.015175 1 24 C 1 36.703 11.297 47 24 47 C 36.703 47 47 36.703 47 24 C 47 20.015175 45.97042 16.267733 44.1875 13 L 3.8125 13 z M 44.1875 13 C 43.944542 12.554707 43.677177 12.114338 43.40625 11.6875 C 43.678087 12.11575 43.943703 12.553169 44.1875 13 z M 43.40625 11.6875 C 43.132032 11.255476 42.8641 10.849346 42.5625 10.4375 C 42.861148 10.845923 43.134413 11.25925 43.40625 11.6875 z "
     id="path31" />
  <g
     id="g33" />
  <path
     style="opacity:0.1;fill:#000000;fill-opacity:1;fill-rule:nonzero;stroke:none"
     inkscape:connector-curvature="0"
     id="path45"
     d="M 20,18 20,38 34.996094,28 M 20,18" />
  <path
     style="opacity:0.1;fill:#000000;fill-opacity:1;fill-rule:evenodd;stroke:none"
     d="M 3.84375,13 C 3.6624438,13.331786 3.477776,13.658582 3.3125,14 l 41.375,0 c -0.165276,-0.341418 -0.349944,-0.668214 -0.53125,-1 z"
     id="path47"
     inkscape:connector-curvature="0"
     sodipodi:nodetypes="ccccc" />
  <path
     style="opacity:0.1;fill:#000000;fill-opacity:1;fill-rule:evenodd;stroke:none"
     inkscape:connector-curvature="0"
     id="path49"
     d="m 18.453,8 1.23,2 -1.23,2 -2.461,0 1.23,-2 -1.23,-2 m 2.461,0" />
  <path
     style="opacity:0.1;fill:#000000;fill-opacity:1;fill-rule:evenodd;stroke:none"
     inkscape:connector-curvature="0"
     id="path51"
     d="m 23.328,8 1.23,2 -1.23,2 -2.461,0 1.23,-2 -1.23,-2 m 2.461,0" />
  <path
     style="opacity:0.1;fill:#000000;fill-opacity:1;fill-rule:evenodd;stroke:none"
     inkscape:connector-curvature="0"
     id="path53"
     d="m 28.04,8 1.23,2 -1.23,2 -2.461,0 1.23,-2 -1.23,-2 m 2.461,0" />
  <path
     style="opacity:0.1;fill:#000000;fill-opacity:1;fill-rule:evenodd;stroke:none"
     inkscape:connector-curvature="0"
     id="path55"
     d="m 32.758,8 1.23,2 -1.23,2 -2.461,0 1.23,-2 -1.23,-2 m 2.461,0" />
  <path
     style="fill:#e5e6ff;fill-opacity:1;fill-rule:nonzero;stroke:none"
     inkscape:connector-curvature="0"
     id="path63"
     d="M 19,17 19,37 33.996094,27 M 19,17" />
  <path
     style="fill:#616161;fill-opacity:1;fill-rule:evenodd;stroke:none"
     d="M 24 1 C 15.281825 1 7.7132515 5.8507105 3.8125 13 L 44.1875 13 C 40.286748 5.8507105 32.718175 1 24 1 z "
     id="path65" />
  <path
     style="fill:#f9f9f9;fill-opacity:1;fill-rule:evenodd;stroke:none"
     inkscape:connector-curvature="0"
     id="path67"
     d="m 17.453,7 1.23,2 -1.23,2 -2.461,0 1.23,-2 -1.23,-2 m 2.461,0" />
  <path
     style="fill:#f9f9f9;fill-opacity:1;fill-rule:evenodd;stroke:none"
     inkscape:connector-curvature="0"
     id="path69"
     d="m 22.328,7 1.23,2 -1.23,2 -2.461,0 1.23,-2 -1.23,-2 m 2.461,0" />
  <path
     style="fill:#f9f9f9;fill-opacity:1;fill-rule:evenodd;stroke:none"
     inkscape:connector-curvature="0"
     id="path71"
     d="m 27.04,7 1.23,2 -1.23,2 -2.461,0 1.23,-2 -1.23,-2 m 2.461,0" />
  <path
     style="fill:#f9f9f9;fill-opacity:1;fill-rule:evenodd;stroke:none"
     inkscape:connector-curvature="0"
     id="path73"
     d="m 31.758,7 1.23,2 -1.23,2 -2.461,0 1.23,-2 -1.23,-2 m 2.461,0" />
  <g
     id="g75">
    <path
       d="m 40.03 7.531 c 3.712 4.084 5.969 9.514 5.969 15.469 0 12.703 -10.297 23 -23 23 c -5.954 0 -11.384 -2.256 -15.469 -5.969 4.178 4.291 10.01 6.969 16.469 6.969 c 12.703 0 23 -10.298 23 -23 0 -6.462 -2.677 -12.291 -6.969 -16.469 z"
       opacity="0.1"
       id="path77" />
  </g>
</svg>

<svg xmlns="http://www.w3.org/2000/svg" viewBox="0 0 48 48"><defs><clipPath><g transform="translate(0,-1004.3622)"><path d="m -24 13 c 0 1.105 -0.672 2 -1.5 2 -0.828 0 -1.5 -0.895 -1.5 -2 0 -1.105 0.672 -2 1.5 -2 0.828 0 1.5 0.895 1.5 2 z" transform="matrix(15.333333,0,0,11.5,414.99999,878.8622)" fill="#1890d0"/></g></clipPath><clipPath><g transform="translate(0,-1004.3622)"><path d="m -24 13 c 0 1.105 -0.672 2 -1.5 2 -0.828 0 -1.5 -0.895 -1.5 -2 0 -1.105 0.672 -2 1.5 -2 0.828 0 1.5 0.895 1.5 2 z" transform="matrix(15.333333,0,0,11.5,414.99999,878.8622)" fill="#1890d0"/></g></clipPath><linearGradient id="linearGradient3157" gradientUnits="userSpaceOnUse" gradientTransform="matrix(0,-1,1,0,-1.5e-6,47.999998)" x1="1" x2="47"><stop stop-color="#6b74c7" stop-opacity="1"/><stop offset="1" stop-color="#7a81cc" stop-opacity="1"/></linearGradient></defs><g><path d="m 36.31 5 c 5.859 4.062 9.688 10.831 9.688 18.5 c 0 12.426 -10.07 22.5 -22.5 22.5 c -7.669 0 -14.438 -3.828 -18.5 -9.688 c 1.037 1.822 2.306 3.499 3.781 4.969 c 4.085 3.712 9.514 5.969 15.469 5.969 c 12.703 0 23 -10.298 23 -23 c 0 -5.954 -2.256 -11.384 -5.969 -15.469 c -1.469 -1.475 -3.147 -2.744 -4.969 -3.781 z m 4.969 3.781 c 3.854 4.113 6.219 9.637 6.219 15.719 c 0 12.703 -10.297 23 -23 23 c -6.081 0 -11.606 -2.364 -15.719 -6.219 c 4.16 4.144 9.883 6.719 16.219 6.719 c 12.703 0 23 -10.298 23 -23 c 0 -6.335 -2.575 -12.06 -6.719 -16.219 z" opacity="0.05"/><path d="m 41.28 8.781 c 3.712 4.085 5.969 9.514 5.969 15.469 c 0 12.703 -10.297 23 -23 23 c -5.954 0 -11.384 -2.256 -15.469 -5.969 c 4.113 3.854 9.637 6.219 15.719 6.219 c 12.703 0 23 -10.298 23 -23 c 0 -6.081 -2.364 -11.606 -6.219 -15.719 z" opacity="0.1"/><path d="m 31.25 2.375 c 8.615 3.154 14.75 11.417 14.75 21.13 c 0 12.426 -10.07 22.5 -22.5 22.5 c -9.708 0 -17.971 -6.135 -21.12 -14.75 a 23 23 0 0 0 44.875 -7 a 23 23 0 0 0 -16 -21.875 z" opacity="0.2"/></g><path d="m 20.781 1.219 c -0.475 0.067 -0.941 0.155 -1.406 0.25 c 0.462 -0.094 0.934 -0.184 1.406 -0.25 z m 6.438 0 c 0.472 0.066 0.944 0.156 1.406 0.25 c -0.465 -0.095 -0.931 -0.183 -1.406 -0.25 z m -8.125 0.313 c -0.461 0.1 -0.925 0.216 -1.375 0.344 c 0.458 -0.13 0.906 -0.242 1.375 -0.344 z m -1.375 0.344 c -0.423 0.12 -0.837 0.263 -1.25 0.406 c 0.415 -0.144 0.824 -0.286 1.25 -0.406 z m 11.188 -0.344 c 0.469 0.102 0.917 0.214 1.375 0.344 c -0.45 -0.128 -0.914 -0.243 -1.375 -0.344 z m 1.375 0.344 c 0.426 0.121 0.835 0.262 1.25 0.406 c -0.413 -0.143 -0.827 -0.286 -1.25 -0.406 z m -20.906 4.375 c -0.312 0.258 -0.608 0.539 -0.906 0.813 c 0.296 -0.272 0.596 -0.556 0.906 -0.813 z m 29.25 0 c 0.31 0.256 0.61 0.541 0.906 0.813 c -0.298 -0.274 -0.594 -0.555 -0.906 -0.813 z m -33.19 4.188 c -0.302 0.412 -0.57 0.818 -0.844 1.25 c 0.272 -0.428 0.545 -0.842 0.844 -1.25 z m -0.844 1.25 c -0.271 0.427 -0.538 0.867 -0.781 1.313 c 0.244 -0.447 0.509 -0.884 0.781 -1.313 z m -0.781 1.313 c -1.783 3.268 -2.813 7.02 -2.813 11 c 0 12.703 10.297 23 23 23 c 12.703 0 23 -10.297 23 -23 c 0 -3.985 -1.03 -7.732 -2.813 -11 l -40.37 0 z m 40.38 0 c -0.243 -0.445 -0.51 -0.886 -0.781 -1.313 c 0.272 0.428 0.537 0.866 0.781 1.313 z m -0.781 -1.313 c -0.274 -0.432 -0.542 -0.838 -0.844 -1.25 c 0.299 0.408 0.572 0.822 0.844 1.25 z" fill="url(#linearGradient3157)" fill-opacity="1"/><path d="M 20,18 20,38 34.996094,28 M 20,18" opacity="0.1" fill="#000" fill-rule="nonzero" stroke="none" fill-opacity="1"/><path d="m 3.844 13 c -0.181 0.332 -0.366 0.659 -0.531 1 l 41.38 0 c -0.165 -0.341 -0.35 -0.668 -0.531 -1 z" opacity="0.1" fill="#000" fill-rule="evenodd" stroke="none" fill-opacity="1"/><path d="m 18.453 8 1.23 2 -1.23 2 -2.461 0 1.23 -2 -1.23 -2 m 2.461 0" opacity="0.1" fill="#000" fill-rule="evenodd" stroke="none" fill-opacity="1"/><path d="m 23.328 8 1.23 2 -1.23 2 -2.461 0 1.23 -2 -1.23 -2 m 2.461 0" opacity="0.1" fill="#000" fill-rule="evenodd" stroke="none" fill-opacity="1"/><path d="m 28.04 8 1.23 2 -1.23 2 -2.461 0 1.23 -2 -1.23 -2 m 2.461 0" opacity="0.1" fill="#000" fill-rule="evenodd" stroke="none" fill-opacity="1"/><path d="m 32.758 8 1.23 2 -1.23 2 -2.461 0 1.23 -2 -1.23 -2 m 2.461 0" opacity="0.1" fill="#000" fill-rule="evenodd" stroke="none" fill-opacity="1"/><path d="M 19,17 19,37 33.996094,27 M 19,17" fill="#e5e6ff" fill-rule="nonzero" stroke="none" fill-opacity="1"/><path d="m 24 1 c -8.718 0 -16.287 4.851 -20.19 12 l 40.38 0 c -3.901 -7.149 -11.469 -12 -20.19 -12 z" fill="#616161" fill-rule="evenodd" stroke="none" fill-opacity="1"/><path d="m 17.453 7 1.23 2 -1.23 2 -2.461 0 1.23 -2 -1.23 -2 m 2.461 0" fill="#f9f9f9" fill-rule="evenodd" stroke="none" fill-opacity="1"/><path d="m 22.328 7 1.23 2 -1.23 2 -2.461 0 1.23 -2 -1.23 -2 m 2.461 0" fill="#f9f9f9" fill-rule="evenodd" stroke="none" fill-opacity="1"/><path d="m 27.04 7 1.23 2 -1.23 2 -2.461 0 1.23 -2 -1.23 -2 m 2.461 0" fill="#f9f9f9" fill-rule="evenodd" stroke="none" fill-opacity="1"/><path d="m 31.758 7 1.23 2 -1.23 2 -2.461 0 1.23 -2 -1.23 -2 m 2.461 0" fill="#f9f9f9" fill-rule="evenodd" stroke="none" fill-opacity="1"/><g><path d="m 40.03 7.531 c 3.712 4.084 5.969 9.514 5.969 15.469 0 12.703 -10.297 23 -23 23 c -5.954 0 -11.384 -2.256 -15.469 -5.969 4.178 4.291 10.01 6.969 16.469 6.969 c 12.703 0 23 -10.298 23 -23 0 -6.462 -2.677 -12.291 -6.969 -16.469 z" opacity="0.1"/></g></svg>
